X:027 
T:Callan Lasses (reel), The  
T:Donnelly's
F:file ID: cre.5/027call_L
B:CRE5.163 (GearrchailÃÂÃÂÃÂÃÂ­ Challain)
M:4/4
Q:180
R:reel
K:D
E|F2FE FGAB|A2FA defd|e2df efdB|AGFA dBAG|
FADE FGAB|Adef defa|afef dBAF|GFEG FDD:|
e|defd BcdB|cBAc BF~F2|dcBd cBAc|BAFE FADE|
defd BcdB|ABdc defa|afef dBAF|GFEG FDD:|

%%%

